static/assets/img/icons/theme/food/chicken.svg

<svg height="24" viewBox="0 0 24 24" width="24" xmlns="http://www.w3.org/2000/svg"><g fill="none" fill-rule="evenodd"><path d="m0 0h24v24h-24z" opacity="0"/><g fill="#000" transform="matrix(.70710678 .70710678 -.70710678 .70710678 15.181981 -.581475)"><path d="m7 0c3.2482778 0 5.8815273 2.63324947 5.8815273 5.88152731 0 .59494605-.0902697 1.18644841-.2677272 1.75431251l-1.7189751 5.50072028c-.5323556 1.7035379-2.11004381 2.8634399-3.894825 2.8634399-1.78478119 0-3.36246938-1.159902-3.89482498-2.8634399l-1.71897507-5.50072028c-.96888005-3.10041615.75907137-6.39923252 3.85948753-7.36811257.5678641-.17745753 1.15936646-.26772725 1.75431252-.26772725z"/><path d="m5.5 20.0853529v-2.0853529h3v2.0853529c.58259619.2059182 1 .7615377 1 1.4146471 0 .8284271-.67157288 1.5-1.5 1.5-.38417722 0-.73462175-.1444268-1-.3819467-.26537825.2375199-.61582278.3819467-1 .3819467-.82842712 0-1.5-.6715729-1.5-1.5 0-.6531094.41740381-1.2087289 1-1.4146471z" opacity=".3"/></g></g></svg>

<svg width="24px" height="24px" viewBox="0 0 24 24" version="1.1" xmlns="http://www.w3.org/2000/svg" xmlns:xlink="http://www.w3.org/1999/xlink">
    <title>Icon For Chicken</title>
    <g stroke="none" stroke-width="1" fill="none" fill-rule="evenodd">
        <rect opacity="0" x="0" y="0" width="24" height="24"></rect>
        <g transform="translate(12.000000, 12.500000) rotate(-315.000000) translate(-12.000000, -12.500000) translate(5.000000, 1.000000)" fill="#000000">
            <path d="M7,1.77635684e-15 L7,1.77635684e-15 C10.2482778,1.17965788e-15 12.8815273,2.63324947 12.8815273,5.88152731 C12.8815273,6.47647336 12.7912576,7.06797572 12.6138001,7.63583982 L10.894825,13.1365601 C10.3624694,14.840098 8.78478119,16 7,16 L7,16 C5.21521881,16 3.63753062,14.840098 3.10517502,13.1365601 L1.38619995,7.63583982 C0.417319895,4.53542367 2.14527132,1.2366073 5.24568748,0.267727252 C5.81355158,0.090269721 6.40505394,1.88564666e-15 7,1.77635684e-15 Z"></path>
            <path d="M5.5,20.0853529 L5.5,18 L8.5,18 L8.5,20.0853529 C9.08259619,20.2912711 9.5,20.8468906 9.5,21.5 C9.5,22.3284271 8.82842712,23 8,23 C7.61582278,23 7.26537825,22.8555732 7,22.6180533 C6.73462175,22.8555732 6.38417722,23 6,23 C5.17157288,23 4.5,22.3284271 4.5,21.5 C4.5,20.8468906 4.91740381,20.2912711 5.5,20.0853529 Z" opacity="0.3"></path>
        </g>
    </g>
</svg>
